tools/download-figma-icons/icons/solid/shield.svg

<svg width="24" height="24" viewBox="0 0 24 24" fill="none" xmlns="http://www.w3.org/2000/svg">
<path d="M21.24 3.0375L12.24 0.03C12.24 0.03 12.18 0.0225 12.15 0.015C12.0975 0.015 12.0525 0 12 0C11.9475 0 11.9025 0.0075 11.8575 0.015C11.8275 0.0225 11.79 0.015 11.76 0.03L2.76 3.0375C2.46 3.1425 2.25 3.4275 2.25 3.75V14.2425C2.25 14.2425 2.25 14.3025 2.2575 14.3325C2.2875 14.625 3.1575 21.615 11.805 23.97C11.865 23.9925 11.9325 24 11.9925 24H12.0075C12.0675 24 12.135 23.9925 12.195 23.97C20.8425 21.615 21.7125 14.625 21.7425 14.3325C21.75 14.3025 21.75 14.2725 21.75 14.2425V3.75C21.75 3.4275 21.54 3.1425 21.24 3.0375ZM17.1075 8.6775L11.7225 16.185C11.595 16.365 11.3925 16.4775 11.1675 16.4925C11.1525 16.4925 11.13 16.5 11.115 16.5C10.9125 16.5 10.7175 16.4175 10.575 16.2675L6.96 12.5475C6.675 12.2475 6.6825 11.775 6.975 11.4825C7.275 11.1975 7.7475 11.205 8.04 11.4975L11.025 14.58L15.8925 7.8075C16.1325 7.47 16.5975 7.395 16.935 7.635C17.2725 7.875 17.3475 8.3475 17.1075 8.6775Z" fill="black"/>
</svg>

<svg xmlns="http://www.w3.org/2000/svg" width="24" height="24" fill="none" viewBox="0 0 24 24"><path fill="currentColor" d="m21.24 3.038-9-3.008s-.06-.007-.09-.015C12.097.015 12.052 0 12 0c-.053 0-.098.008-.143.015-.03.008-.067 0-.097.015l-9 3.008a.76.76 0 0 0-.51.712v10.493s0 .06.007.09c.03.292.9 7.282 9.548 9.637.06.023.127.03.188.03h.014a.6.6 0 0 0 .188-.03c8.648-2.355 9.517-9.345 9.548-9.637q.009-.045.007-.09V3.75a.76.76 0 0 0-.51-.712m-4.132 5.64-5.385 7.507a.74.74 0 0 1-.556.308c-.014 0-.037.007-.052.007a.74.74 0 0 1-.54-.233l-3.615-3.72a.763.763 0 0 1 .015-1.065.763.763 0 0 1 1.065.016l2.985 3.082 4.868-6.772a.746.746 0 1 1 1.215.87"/></svg>
